X: 108
T: Thirty Three and a Third
C: Steve Hodgskiss
R: Polka
M: C|
L: 1/4
K: G
"G"A,B,B,D|"G/B"DGGB|"C"c/2B/2ABG|"Am"AG"D"ED|"G"A,B,B,D|"G/B"DGGB|
"C"c/2B/2ABG|1 "Am"AG"D"D2:|2 "Am"AB"D"d2|:"C"deeg|"G/B"dgge|"Am"dcBA|
"G/B" ABBG|"C"deeg|"G/B"dgge|"Am"dc"(D)"BA|1 "G/B"d2B/2c/2d:|2 "G"G2G,z|]

%%newpage
%%textfont * 14
%%begintext justify
%%32 Bar Polkas
%%endtext
